X:57
T:Rangers Frolick. Ru1.057
%%VWML:RutherfordVol1-2248-p29-0p29
Z:Transcription by Village Music Project, Steve Mansfield July 2015
F:http://www.village-music-project.org.uk/
F:http://www.vwml.org/record/RutherfordVol1/2248/p29
Z:vmp.Mike Hicken 2015 www.village-music-project.org.uk
M:6/4
Q:3/4=110
K:G
G2G G2d|BGB Tc2B|G2G G2 (3B/c/d/|AFA Tc2A|G2G G2 (3B/c/d/|BGB g2d|ece dBd|AFA Tc2A :|
|: g>fg def|g>fg d>cB|g>fg def|AFA c2A| g>fg def|g>fg d>cB|(c/d/)ec (d/e/) fd|AFA Tc2A :|
|:BGG ADD|BGG cBA|BGG ADD|AFA c2A| BGG ADD|g>fg dcB|(c/d/e)c (B/c/d)B|AFA Tc2A |]
W:
W: The first Man sets to the 2d. Wo. & turns her .|  The first Wo.
W: & 2d. Man does the same :|  Cross over two Cu. .||  Lead up to
W: the Top Foot it & cast off :||:  Hands across half round & back
W: again .|||  Right Hand and Left :|
|:
T:Foster Meads. Ru1.058
L:1/8
B:RUTHERFORD Complete Collection of 200 Country Dances Vol.1; London: David & John Rutherford 1756.
Z:vmp.Mike Hicken 2015 www.village-music-project.org.uk
M:6/8
Q:3/8=110
K:G
c|B2A GDG|B2c d3|ecc dBB|cAA A2 :|
|:g|f2e dAd|f2g a3|BGG cAA|dcB A2G|Bdg Agf|g2-g3 |]
W:
W: The first Cu. Foot it to each other &
W: Clap Hands & cross over into each
W: others place .|  Foot it sides & Clap
W: Hands & cast off :|  Half Figure .|.
W: Right Hand and Left :|
|:
